React/src/assets/images/frontend/ionic.svg

<svg width="130" height="130" viewBox="0 0 130 130" fill="none" xmlns="http://www.w3.org/2000/svg">
<path d="M107.552 33.7188C108.419 32.4264 108.925 30.8715 108.925 29.1982C108.925 24.7104 105.287 21.0732 100.8 21.0732C99.127 21.0732 97.5721 21.5795 96.2795 22.4466C87.5233 15.9989 76.7071 12.1865 64.9982 12.1865C35.8295 12.1865 12.1857 35.8315 12.1857 64.999C12.1857 94.1678 35.8308 117.812 64.9982 117.812C94.1644 117.812 117.811 94.167 117.811 64.999C117.811 53.2912 113.998 42.475 107.551 33.7178L107.552 33.7188ZM99.4876 99.4881C95.0072 103.969 89.7906 107.486 83.9831 109.942C77.9726 112.485 71.5858 113.774 64.9995 113.774C58.4132 113.774 52.0262 112.485 46.0157 109.942C40.2081 107.486 34.9918 103.969 30.5112 99.4881C26.0305 95.0074 22.5131 89.7912 20.0568 83.9836C17.5145 77.9731 16.2254 71.5859 16.2254 64.9995C16.2254 58.4132 17.5145 52.0262 20.0566 46.0157C22.5129 40.2081 26.0302 34.9919 30.5109 30.5112C34.9916 26.0305 40.2078 22.5131 46.0154 20.0569C52.0262 17.5145 58.4132 16.2254 64.9995 16.2254C71.5856 16.2254 77.9726 17.5145 83.9831 20.0566C87.3971 21.5006 90.6049 23.3142 93.5812 25.4717C93.0036 26.5883 92.6753 27.8548 92.6753 29.1987C92.6753 33.6865 96.313 37.3237 100.8 37.3237C102.144 37.3237 103.41 36.9954 104.527 36.4178C106.685 39.3938 108.498 42.6017 109.942 46.0157C112.485 52.0262 113.774 58.4132 113.774 64.9995C113.774 71.5856 112.485 77.9731 109.942 83.9836C107.486 89.7912 103.969 95.0077 99.4876 99.4881Z" fill="#4F8FF7"/>
<path d="M65 89.375C78.4619 89.375 89.375 78.4619 89.375 65C89.375 51.5381 78.4619 40.625 65 40.625C51.5381 40.625 40.625 51.5381 40.625 65C40.625 78.4619 51.5381 89.375 65 89.375Z" fill="#4F8FF7"/>
</svg>

<svg width="130" height="130" fill="none" xmlns="http://www.w3.org/2000/svg"><path d="M107.552 33.719a8.125 8.125 0 00-11.273-11.272A52.572 52.572 0 0065 12.187c-29.17 0-52.813 23.644-52.813 52.812 0 29.169 23.645 52.813 52.812 52.813 29.166 0 52.813-23.645 52.813-52.813a52.58 52.58 0 00-10.26-31.281h.001zm-8.064 65.77a48.602 48.602 0 01-15.505 10.453c-6.01 2.543-12.397 3.832-18.984 3.832-6.586 0-12.973-1.289-18.983-3.832A48.603 48.603 0 0130.51 99.488a48.614 48.614 0 01-10.454-15.504c-2.542-6.01-3.832-12.398-3.832-18.984 0-6.587 1.29-12.974 3.832-18.984A48.613 48.613 0 0130.51 30.51a48.612 48.612 0 0115.504-10.454c6.011-2.542 12.398-3.832 18.984-3.832a48.552 48.552 0 0128.582 9.246 8.125 8.125 0 0010.946 10.946 48.516 48.516 0 015.415 9.599c2.543 6.01 3.832 12.397 3.832 18.983 0 6.587-1.289 12.974-3.832 18.985a48.594 48.594 0 01-10.454 15.504z" fill="#4F8FF7"/><path d="M65 89.375c13.462 0 24.375-10.913 24.375-24.375S78.462 40.625 65 40.625 40.625 51.538 40.625 65 51.538 89.375 65 89.375z" fill="#4F8FF7"/></svg>
